X:46
T:Miss Eaton’s Hornpipe. RHu.046
T:Miss Gayton’s Hp.aka. RHu.046
S:R.Hughes MS,1823,Whitchurch,Shrops.
R:.Hornpipe
N:Key signature missing but obviously in G not C
A:Whitchurch, Shropshire
B:R Hughes MS 1823
Z:Neil Brookes
M:4/4
L:1/8
Q:1/2=90
K:G
dc|Bdga g2 dc|Bdga g2 dc|Bdag fedc|Bdag fedc|!
Bdga g2 dc|Bdga g2 dc|Bdeg fgaf|g2b2g2:|!
|:ga|b2bg a2af|gfge d2cB|cdec BcdB|A2a2 a2ga|!
b2bg a2af|gfge d3d|efge fgaf|g2b 2g2:|

